source/img/footer-twitter-mobile.svg

<svg width="29" height="20" viewBox="0 0 29 20" fill="none" xmlns="http://www.w3.org/2000/svg">
<path d="M25.7143 8.89167C27.343 8.75715 28.4478 8.01589 28.873 7.01011C28.2854 7.37142 26.4616 7.76534 25.4544 7.39019C25.405 7.15327 25.3499 6.92823 25.2958 6.72506C24.5283 3.9038 21.9005 1.63088 19.1471 1.90546C19.3699 1.81542 19.5958 1.73159 19.8211 1.65633C20.1242 1.54765 21.9023 1.25802 21.6223 0.629686C21.3863 0.077015 19.2138 1.04736 18.8048 1.17419C19.3447 0.970887 20.2378 0.621181 20.3334 0C19.5062 0.113599 18.694 0.505153 18.0665 1.0745C18.2931 0.830356 18.4649 0.532827 18.5014 0.212618C16.2949 1.62379 15.006 4.46882 13.9629 7.2286C13.1438 6.43395 12.4179 5.80818 11.7666 5.4607C9.93964 4.47989 7.75519 3.45656 4.3261 2.1822C4.22085 3.31798 4.88719 4.82818 6.80728 5.83247C6.39128 5.77672 5.63054 5.90112 5.02211 6.04698C5.26989 7.34813 6.07911 8.42013 8.26983 8.93851C7.26866 9.00466 6.75125 9.23274 6.28232 9.72432C6.73831 10.6293 7.851 11.6943 9.8526 11.4757C7.62722 12.4359 8.94521 14.2141 10.756 13.9489C7.66693 17.1431 2.79666 16.9084 0 14.2367C7.3019 24.1975 23.1745 20.1275 25.54 10.5334C27.3122 10.5485 28.354 9.91885 29 9.22464C27.9789 9.39811 26.499 9.21883 25.7143 8.89167Z" fill="white"/>
</svg>

<svg width="29" height="20" fill="none" xmlns="http://www.w3.org/2000/svg"><path d="M25.714 8.892c1.629-.135 2.734-.876 3.159-1.882-.588.361-2.411.755-3.419.38a12.226 12.226 0 00-.158-.665c-.768-2.821-3.395-5.094-6.149-4.82.223-.09.449-.173.674-.249.303-.108 2.081-.398 1.801-1.026-.236-.553-2.408.417-2.817.544.54-.203 1.433-.553 1.528-1.174a4.311 4.311 0 00-2.266 1.075c.226-.245.398-.542.434-.862-2.206 1.41-3.495 4.256-4.538 7.016-.82-.795-1.545-1.42-2.196-1.768-1.827-.981-4.012-2.004-7.44-3.279-.106 1.136.56 2.646 2.48 3.65-.416-.055-1.176.07-1.785.215C5.27 7.348 6.08 8.42 8.27 8.939c-1.001.066-1.519.294-1.988.785.456.905 1.569 1.97 3.57 1.752-2.225.96-.907 2.738.904 2.473-3.09 3.194-7.96 2.96-10.756.288 7.302 9.96 23.174 5.89 25.54-3.704 1.772.016 2.814-.614 3.46-1.308-1.021.173-2.501-.006-3.286-.333z" fill="#fff"/></svg>
